X:1
T:Crucified!
T:Crucified!
T:Charles Austin Miles
T:Charles Austin Miles, 1903
T:Public Domain Courtesy of the Cyber Hymnal™
C:Charles Austin Miles
Z:Public Domain
Z:Courtesy of the Cyber Hymnal™
%%score ( 1 2 ) ( 3 4 )
L:1/8
Q:1/4=100
M:6/8
K:Ab
V:1 treble 
V:2 treble 
V:3 bass 
V:4 bass 
V:1
 [CE] | [Ec]2 [Ec] ([CA][DB])[Ec] | [FB]2 [FA] (FG)[DA] | [DG]2 [DG] G2 [DF] | [CE]3- [CE]2 [CE] | %5
w: 1.~They|nailed my Lord * up-|on the tree * And|left Him, dy- ing,|there: * Thro’|
w: 2.~Up-|on His head * a|crown of thorns, * Up-|on His heart my|shame; * For|
w: 3.~“For-|give him, O * for-|give!” He cried, * Then|bowed His sac- red|head; * O|
w: 4.~His|voice I hear, * His|love I know; * I|wor- ship at His|feet; * And|
 [Ec]2 [Ec] ([CA][DB])c | [Fd]2 [Fd] ([DF][FA])[_FB] | [Ec]2 [Ec] [Ec]2 [DB] | [CA]6 || %9
w: love He suf- * fered|there for me; * ’Twas|love be- yond com-|pare.|
w: me He prayed, * for|me He died, * And|dy- ing, spoke my|name.|
w: Lamb of God! * My|sac- ri- fice, * For|me Thy blood was|shed.|
w: kneel- ing there, * at|Cal- vary’s cross, * Re-|demp- tion is com-|plete.|
"^Refrain" [Ec]2 [Ec] [=EB]3 | [FA]2 [FA] [=EG]2 [EG] | [DF]2 [FA] [EG]2 [DF] | [CE]3- [CE]2 [CE] | %13
w: ||||
w: Cru- ci- fied!|Cru- ci- fied! And|nailed up- on the|tree! * With|
w: ||||
w: ||||
 [EA]2 [EA] [=EB]2"^riten." [EB] | [Fc]2 [_Gc] !fermata![Fd]2 [=B,F] | E3- E2 [DB] | A3- [CA]2 |] %17
w: ||||
w: pierc- èd hands and|feet and side! For|you! * For|me! *|
w: ||||
w: ||||
V:2
 x | x6 | x3 D2 x | x3 (DE) x | x6 | x5 (E/_G/) | x6 | x6 | x6 || x6 | x6 | x6 | x6 | x6 | x6 | %15
 (C2 CB,C) x | C2 D x2 |] %17
V:3
 [A,,A,] | [A,,A,]2 [A,,A,] [A,,A,]2 [A,,A,] | [D,A,]2 [D,A,] (A,G,)[D,F,] | %3
w: ~|~ ~ ~ ~|~ ~ ~ * ~|
 [E,B,]2 [E,B,] [E,B,]2 [E,G,] | [A,,A,]3- [A,,A,]2 [A,,A,] | [A,,A,]2 [A,,A,] [A,,A,]2 [A,,A,] | %6
w: ~ ~ ~ ~|~ * ~|~ ~ ~ ~|
 [D,A,]2 [D,A,] [D,A,]2 [D,A,] | [E,A,]2 [E,A,] [E,G,]2 [E,G,] | [A,,A,]6 || A,2 A, [G,C]3 | %10
w: ~ ~ ~ ~|~ ~ ~ ~|~|~ ~ ~|
 [F,C]2 [F,C] [C,C]2 [C,B,] | [D,A,]2 [D,D] [D,D]2 [D,A,] | [A,,A,]3- [A,,A,]2 [A,,A,] | %13
w: ~ ~ ~ ~|~ ~ ~ ~|~ * ~|
 [A,C]2 [A,C] [G,C]2 [G,C] | [F,A,]2 [E,A,] !fermata![D,A,]2 [=D,A,] | %15
w: ~ ~ ~ ~|~ ~ ~ ~|
 [E,A,]2 [E,A,] [E,G,]2 [E,G,] | (A,2 F, [A,,E,]2) |] %17
w: ~ For you! ~|~ For me!|
V:4
 x | x6 | x3 D,2 x | x6 | x6 | x6 | x6 | x6 | x6 || A,2 A, x3 | x6 | x6 | x6 | x6 | x6 | x6 | %16
 A,,3- x2 |] %17

